X:1
T:Trumpet Voluntary
C:Jeremiah Clarke
M:4/4
L:1/4
Q:1/4=120
K:D
[V:1]|:[d2]!trill!e3/d//e// | f3/g/f[Ae] | [Ad][Ae][Af][e/A]d/ | [Ae]AAA | [F2A2d2]!trill!e3/d//e// |
[V:2 clef=bass]|:[F,2A,2D2][E,2A,2C2] | [D3F,3A,3D,3][CA,] | [F,D][E,C][D,D][DF,] | [C4A,4E,4] | [D2F,2][C2A,2E,2] |
[V:3 clef=bass]D,2A,,2 | A,A,,D,,E,, | F,,E,,D,,E,, | A,,2A,G, | F,2E,2 |
[V:1]f3/g/fe | d/e/d/e/!trill!e3/d/ | d3z :| f2!trill!^g3/f//g// | a3/b/ag |
[V:2][D,3F,3A,3D3][A,C] |[A,D][G,B,D][(DA,2]C) | [F,3A,3D3]z :|[D,2A,2D2][E,2D2] | [DA,4E,4]C-C2 |
[V:3]D,A,,D,,E,, | F,,G,,A,,2 | D,A,,D,,z :|D,2B,,2 | A,,3A,, |
[V:1]fddA | dAFD | f2!trill!^g3/f//g// | a3/b/ag | f3/e/ d/e/f/g/ |
[V:2][D,2F,2D2][D,2F,2D2] | [F,4A,4D4] | [F,2A,2D2][E,2D2] | [E,3A,3C3][A,C] | [F,/D2]B,/A,/G,/ [F,/D2]G,/A,/B,/ |
[V:3]D,3D, | D,2D,,2 | D,C,B,,E, | A,,3A,, | D,2D,,2 |
[V:1]e3z | d2!trill!e3/d//e// | f3/g/fe | defe/d/ | eAAA |
[V:2][A,3C3]z | [F,2A,2D2][E,2A,2C2] | [D,3F,3A,3][A,C] | [A,D][A,CE][A,DF][A,D] | [E,4A,4C4] |
[V:3]A,,2A,/G,/F,/E,/ | D,2A,,2 | D,A,,D,,E,, | F,,E,,D,,E,, | A,,2A,G, |
[V:1]d2!trill!e3/d//e// | f3/g/fe | d/e/d/e/!trill!e3/d/ | d3z | [FA][D/F/][E/G/][DFA][FAd] |
[V:2][A,2D2][E,2A,2C2] | [D,3F,3A,3D3][A,C] | [A,D][G,B,D][(DA,2]C) | [F,3A,3D3]z | [D,4A,4] |
[V:3]F,2E,2 | D,A,,D,,E,, | F,,G,,A,,2 | D,A,,D,,z | D,3D, |
%ok to here (I think)
[V:1][DFA][D/F/][E/G/][DFA][FAd] | [DFA][F/A/d/][A/e/][Adf][FAd] | [E3/A3/c3/][E/B/][C2E2A2] | [ce][A/c/][B/d][Ace][Adf] | [Ace][A/c/][B/d/][Ace][Adf] |
[V:2][D,4A,4] | [D,4A,4] | A,3A, | A,4 | A,4 |
[V:3]D,3D, | D,3D, | E,2A,,2 | A,,3A,, | A,,3A,, |
[V:1][Ace][B/d/][A/c/][EAB3/][E^G] | [C3/E3/A3/]A/AA | d2!trill!e3/d//e// | f3/g/fe | defe/d/ |
[V:2]A,2[E,A,G,][E,^G,B,] | [A,,3/E,3/A,3/]A,/A,A, | [F,2A,2D2][E,2A,2C2] | [D,3F,3A,3D3][A,C] | [A,D][A,CE][A,DF][A,D] |
[V:3]A,,3/A,,/E,E,, | A,,3z | D,2A,,2 | D,A,,D,,E,, | F,,E,,D,,E,, |
[V:1]eAAA | d2!trill!e3/d//e// | f3/g/fe | d/e/d/e/!trill!e3/d/ | d4 |
[V:2][E,4A,4C4] | [A,2D2][E,2A,2C2] | [D,3F,3A,3D3][A,C] | [A,D][G,B,D][(DA,2]C) | [F,4A,4D4] |
[V:3]A,,2A,G, | F,2E,2 | D,3A,, | F,,G,,A,,2 | D,A,,D,,2 |
[V:1][F2A2d2][e3/A2]d//e// | [A3/d3/f3/][A/g/][Af][Ae] | [Ad][Ae][Af][e/A]d/ | eAAA | [A2d2][!trill!e3/A2]d//e// |
[V:2][F,2A,2D2][A,2C2E2] | [F,3/A,3/D3/]A,/[A,D][A,C] | [A,D][A,C][A,D][A,D] | [E,4A,4C4] | [D,2A,2D2][E,2A,2C2] |
[V:3]F,2A,,2 | D,A,,D,,E,, | F,,E,,D,,E,, | A,,2A,G, | F,2E,2 |
[V:1][A3/f3/][A/g/][Af][Ae] | [d/A]e/[d/B]e/[!trill!eAE][EGA] | !fermata![F4A4d4] ||
[V:2][D,3/F,3/A,3/D3/][A,/E/][A,DF][A,CE] | [A,D][G,B,D2][E,A,][E,A,C] | !fermata![D,4F,4A,4D4] ||
[V:3]D,3A,, | F,,G,,A,,2 | D,A,,!fermata!D,,2 ||

